X:83
T:Madam Catalani's Waltz
S:John Moore's Book 2
Z:Transcribed by Edmund Spriggs 05/2021
%%VWML: Moore1-4494-p65-0
F:http://www.vwml.org/record/Moore2/4494/p65
M:3/8
L:1/8
K:C
G/F/|EG/c/e/g/|f/d/B/G/B/G/|c/G/c/d/e/f/|d2G/F/|
EG/c/e/g/|f/d/B/G/B/G/|c/G/c/e/d/B/|c2:|
|:((3d/e/^f/)|gg a/^f/|gg a/^f/|(g/^f/)(g/f/)a/f/|g>fe/d/|
c/G/c/e/^f/g/|=f/d/B/G/B/G/|c/G/c/e/d/B/|c2:|

